common/svg/android-icon.svg

<svg fill="none" height="20" viewBox="0 0 20 20" width="20" xmlns="http://www.w3.org/2000/svg"><path d="m14.219 12.3251c-.421 0-.7634-.3438-.7634-.7661s.3424-.7658.7634-.7658c.4209 0 .7633.3435.7633.7658s-.3424.7661-.7633.7661zm-8.43801 0c-.42097 0-.76337-.3438-.76337-.7661s.3424-.7658.76337-.7658c.42095 0 .76337.3435.76337.7658s-.34242.7661-.76337.7661zm8.71181-4.61332 1.5257-2.6509c.0875-.15237.0354-.34699-.1162-.43498-.1516-.08774-.3459-.03555-.4336.11657l-1.5448 2.68445c-1.1814-.54086-2.5082-.84212-3.92393-.84212-1.41574 0-2.74253.30126-3.92389.84212l-1.54483-2.68445c-.08771-.15212-.28196-.20431-.4336-.11657-.15163.08799-.20391.28261-.1162.43498l1.52575 2.6509c-2.6199 1.42947-4.41175 4.09032-4.673887 7.23382h18.333287c-.2623-3.1435-2.0542-5.80435-4.6738-7.23382z" fill="#000"/></svg>

<svg width="20" height="20" viewBox="0 0 20 20" fill="none" xmlns="http://www.w3.org/2000/svg">
<path d="M14.219 12.3251C13.798 12.3251 13.4556 11.9813 13.4556 11.559C13.4556 11.1367 13.798 10.7932 14.219 10.7932C14.6399 10.7932 14.9823 11.1367 14.9823 11.559C14.9823 11.9813 14.6399 12.3251 14.219 12.3251ZM5.78099 12.3251C5.36002 12.3251 5.01762 11.9813 5.01762 11.559C5.01762 11.1367 5.36002 10.7932 5.78099 10.7932C6.20194 10.7932 6.54436 11.1367 6.54436 11.559C6.54436 11.9813 6.20194 12.3251 5.78099 12.3251ZM14.4928 7.71178L16.0185 5.06088C16.106 4.90851 16.0539 4.71389 15.9023 4.6259C15.7507 4.53816 15.5564 4.59035 15.4687 4.74247L13.9239 7.42692C12.7425 6.88606 11.4157 6.5848 9.99997 6.5848C8.58423 6.5848 7.25744 6.88606 6.07608 7.42692L4.53125 4.74247C4.44354 4.59035 4.24929 4.53816 4.09765 4.6259C3.94602 4.71389 3.89374 4.90851 3.98145 5.06088L5.5072 7.71178C2.8873 9.14125 1.09545 11.8021 0.833313 14.9456H19.1666C18.9043 11.8021 17.1124 9.14125 14.4928 7.71178Z" fill="black"/>
</svg>
